X: 0
T: De'il Among The Tailors, The
C: Trad
O: Scotland
R: reel
M: 4/4
L: 1/8
K: Amaj
|:"A" a2 eg a2 eg|"A" a2 ea fedc|"Bm" dfBf dfBf|"Bm" dfba "E" gfeg|
"A" a2 eg a2 eg|"A" a2 ea fedc|"D" defe "A" dcBA|"E" E2 A2 "A" A2 eg:|
|:"A" ceAe "E" ceAe|"A" ceag fedc|"Bm" dfBf dfBf|"Bm" dfba "E" gfed|
"A" ceAe "E" ceAe|"A" ceag fedc|"D" defe "A" dcBA|"E" E2 A2 "A" A2ed:|